X:159
T:Flop Eared Mule
C:Arranged by Steve Pottier
N:Transcribed by Richard A Taylor
R:bluegrass
L:1/8
Q:1/4=120
M:4/4
K:C
z8 | "C"CD ^DE FG ^GA | _B=B c^c de3 | "G"cd de dc B2 | "C"cd ef g4 | zd eg ^de cA | 
GF ED C4 | "G"DE FD FE DC | "C"E2 [e2c2G2] [e2c2G2] cd | eg ^de c2 AG | zA GF ED CE | 
"G"DE FD FE DB, | "C"CD EF G3d | eg ^de ag de | cA GF ED C2 | "G"DE FD FE DB, | 
"C"C2 [ecGE][ecGE] [e2c2G2E2] E,^F, | "G"G,A, _B,2 =B,D ED | GA Bg2[gBG] [g2B2G2] | 
"D"AB AG ^FD FD | "G"GA Bd [g4d4] | d2 B2 d2 B2 | de dc BG AB | "D"AG ^FE DE FA | 
"G"^FG2G G3F | Gd DG ^cD G=c | DG BD G_B3 | "D"A_B AB AB AB | "G"A_B AB AB AB | 
A_B AG E2 AB | AG E2 G2 E2 | "D"DE G_B AG ED | "G"G2 F2 E2 D2 | "C"C8 | z7/1[f^c] | 
[^f2d2] [fd][fd] [f2d2] [fd][fd] | [^f2d2] [fd][fd] [f3d3]e | "D"^ff e2 d2 B2 | 
AB AG ^FG AB | "A"E^F GA B^c de | "D"^ce ^fg a3e | ^ff e2 d2 B2 | AB AG ^FG AB | 
"A"DE ^FG FE ^C2 | "D"D8 | "D"ba f^f ed Bd | AB AG ^FG AB | "A"E^F GA B^c de | 
"D"^ce ^fg a3^c' | d'^c' ba ba ^fa | ^fe de e/f/e d^c | "A"de ^fg ag fe | "D"d2 [^fdAD][fdAD] [f2d2A2D2] ^c2 | 
"A"[e2e2] d2 [e4e4] | e^f ed ^cB A2 | "E"B^c BA ^G^F EF | "A"^GA B^c e2 d2 | [e4e4] e^f ed | 
^cB AB d/c/B G^G | "E"AB ^cd e^f ^ge | "A"ae ^fe d/^c/B G^G | AB eB Be ^cB | ed Be ^cB eB | 
"E"Be AB d/^c/B G^G | "A"AB ^cd e^f ^ge | ^ga3 ag ^fa | ^g^f eg fe df | "E"ed ^ce d/c/B G^G | 
"A"AB ^cd e^f ^ge | "D"^g/a7/1z/ | z8 | 


